!!!COM: Martinů, Bohuslav (Jan)
!!!OTL: Orchestral Suites Nos. 1 and 2 from Istar (Ishtar)
!!!OMV: III: Allegro
!!!example: 527
!!!work: Mau-4
**kern	**dynam	**kern	**dynam	**kern	**dynam	**kern	**dynam	**kern	**dynam	**kern	**dynam	**kern	**kern	**kern	**kern	**kern	**dynam	**kern	**dynam	**kern	**dynam
*part12	*part12	*part11	*part11	*part10	*part10	*part9	*part9	*part8	*part8	*part7	*part7	*part6	*part6	*part5	*part4	*part3	*part3	*part2	*part2	*part1	*part1
*staff13	*	*staff12	*	*staff11	*	*staff10	*	*staff9	*	*staff8	*	*staff7	*staff6	*staff5	*staff4	*staff3	*	*staff2	*	*staff1	*
*I"Violoncello	*	*I"Viola	*	*I"Violin II	*	*I"Violin II	*	*I"Violin I	*	*I"Violin I	*	*I"Harp	*	*I"Timpani	*I"Bassoon	*I"Clarinet in Bb	*	*I"Flute	*	*I"Flute	*
*I'Vc.	*	*I'Vla.	*	*I'Vln. II	*	*I'Vln. II	*	*I'Vln. I	*	*I'Vln. I	*	*I'Hp.	*	*I'Timp.	*I'Bsn.	*I'Cl.	*	*I'Fl.	*	*I'Fl.	*
*clefF4	*	*clefC3	*	*clefG2	*	*clefG2	*	*clefG2	*	*clefG2	*	*clefF4	*clefG2	*clefF4	*clefF4	*clefG2	*	*clefG2	*	*clefG2	*
*	*	*	*	*	*	*	*	*	*	*	*	*	*	*	*	*ITrd1c2	*	*	*	*	*
*k[]	*	*k[]	*	*k[]	*	*k[]	*	*k[]	*	*k[]	*	*k[]	*k[]	*	*k[]	*k[]	*	*k[]	*	*k[]	*
*C:	*	*C:	*	*C:	*	*C:	*	*C:	*	*C:	*	*C:	*C:	*	*C:	*C:	*	*C:	*	*C:	*
*M3/4	*	*M3/4	*	*M3/4	*	*M3/4	*	*M3/4	*	*M3/4	*	*M3/4	*M3/4	*M3/4	*M3/4	*M3/4	*	*M3/4	*	*M3/4	*
=32	=	=	=	=	=	=	=	=	=	=	=	=	=	=	=	=	=	=	=	=	=
!	!	!	!	!	!	!	!	!LO:TX:t=pizz.	!	!	!	!	!	!	!	!	!	!	!	!	!
16%3FF	.	16%3fL	.	16%3fL	.	16%3r	.	16%3fff	f	2.r	.	2.r	2.r	4r	[2.G	[2.g [2.gg	.	[2.g	.	[2.gg	.
16%3r	.	16%3f	.	16%3f	.	16%3ccL	.	16%3r	.	.	.	.	.	.	.	.	.	.	.	.	.
.	.	.	.	.	.	.	.	.	.	.	.	.	.	8FFL	.	.	.	.	.	.	.
16%3r	.	16%3g	.	16%3g	.	16%3dd	.	16%3ccc	.	.	.	.	.	8FFJ	.	.	.	.	.	.	.
.	.	.	.	.	.	.	.	.	.	.	.	.	.	4FF	.	.	.	.	.	.	.
16%3C	.	16%3cJ	.	16%3cJ	.	16%3ggJ	.	16%3r	.	.	.	.	.	.	.	.	.	.	.	.	.
=33	=33	=33	=33	=33	=33	=33	=33	=33	=33	=33	=33	=33	=33	=33	=33	=33	=33	=33	=33	=33	=33
16%3F	.	16%3fL	.	16%3fL	.	16%3ff	.	16%3bb-XL	.	2.r	.	2.r	2.r	4r	4G]	4g] 4gg]	.	4g]	.	4gg]	.
16%3r	.	16%3f	.	16%3f	.	16%3r	.	16%3ddd	.	.	.	.	.	.	.	.	.	.	.	.	.
.	.	.	.	.	.	.	.	.	.	.	.	.	.	8FFL	4B-X	(4b- 4bb-	.	4b-X	.	4bb-X	.
8%3r	.	16%3e-X	.	16%3e-X	.	16%3ee-XL	.	16%3ccc	.	.	.	.	.	8FFJ	.	.	.	.	.	.	.
.	.	.	.	.	.	.	.	.	.	.	.	.	.	4FF	8GL	8gL 8gg	.	8gL	.	8ggL	.
.	.	16%3B-XJ	.	16%3B-XJ	.	16%3bb-XJ	.	16%3ggJ	.	.	.	.	.	.	.	.	.	.	.	.	.
.	.	.	.	.	.	.	.	.	.	.	.	.	.	.	8FJ	8fJ) 8ff	.	8fJ	.	8ffJ	.
=34	=34	=34	=34	=34	=34	=34	=34	=34	=34	=34	=34	=34	=34	=34	=34	=34	=34	=34	=34	=34	=34
16%3F	.	16%3fL	.	16%3fL	.	16%3r	.	16%3fff	.	2.r	.	2.r	2.r	4r	8E-XL	(8e-L 8ee-	.	8e-XL	.	8ee-XL	.
.	.	.	.	.	.	.	.	.	.	.	.	.	.	.	8CJ	8cJ 8cc	.	8cJ	.	8ccJ	.
16%3r	.	16%3f	.	16%3f	.	16%3ccL	.	16%3r	.	.	.	.	.	.	.	.	.	.	.	.	.
.	.	.	.	.	.	.	.	.	.	.	.	.	.	8FFL	4.BB-X	4.B-) 4.b-	.	4.b-X	.	4.b-X	.
16%3r	.	16%3g	.	16%3g	.	16%3dd	.	16%3ccc	.	.	.	.	.	8FFJ	.	.	.	.	.	.	.
.	.	.	.	.	.	.	.	.	.	.	.	.	.	4FF	.	.	.	.	.	.	.
16%3C	.	16%3cJ	.	16%3cJ	.	16%3ggJ	.	16%3r	.	.	.	.	.	.	.	.	.	.	.	.	.
.	.	.	.	.	.	.	.	.	.	.	.	.	.	.	(8GG	(8G 8g	.	(8g	.	(8g	.
=35	=35	=35	=35	=35	=35	=35	=35	=35	=35	=35	=35	=35	=35	=35	=35	=35	=35	=35	=35	=35	=35
16%3F	.	16%3fL	.	16%3fL	.	16%3ff	.	16%3bb-XL	.	2.r	.	2.r	2.r	4r	2C)	2c) 2cc	.	2c)	.	2cc)	.
16%3r	.	16%3f	.	16%3f	.	16%3r	.	16%3ddd	.	.	.	.	.	.	.	.	.	.	.	.	.
.	.	.	.	.	.	.	.	.	.	.	.	.	.	8FFL	.	.	.	.	.	.	.
16%3C	.	16%3e-X	.	16%3e-X	.	16%3ee-XL	.	16%3ccc	.	.	.	.	.	8FFJ	.	.	.	.	.	.	.
.	.	.	.	.	.	.	.	.	.	.	.	.	.	4FF	(8DL	(8dL 8dd	.	(8dL	.	(8ddL	.
16%3r	.	16%3B-XJ	.	16%3B-XJ	.	16%3bb-XJ	.	16%3ggJ	.	.	.	.	.	.	.	.	.	.	.	.	.
.	.	.	.	.	.	.	.	.	.	.	.	.	.	.	8FJ	8fJ 8ff	.	8fJ	.	8ffJ	.
=36	=36	=36	=36	=36	=36	=36	=36	=36	=36	=36	=36	=36	=36	=36	=36	=36	=36	=36	=36	=36	=36
!	!	!	!	!	!	!	!	!	!	!LO:TX:t=pizz.	!	!	!	!	!	!	!	!	!	!	!
16%3F	.	16%3fL	.	16%3fL	.	16%3r	.	16%3fff	.	16%3ggL	f	2.r	2.r	4r	2C)	2c) 2cc	.	2c)	.	2cc)	.
16%3r	.	16%3f	.	16%3f	.	16%3ccL	.	16%3r	.	16%3bb-X	.	.	.	.	.	.	.	.	.	.	.
.	.	.	.	.	.	.	.	.	.	.	.	.	.	8FFL	.	.	.	.	.	.	.
16%3r	.	16%3g	.	16%3g	.	16%3dd	.	16%3ccc	.	16%3ffJ	.	.	.	8FFJ	.	.	.	.	.	.	.
.	.	.	.	.	.	.	.	.	.	.	.	.	.	4FF	(8BB-XL	(8B-L 8b-	.	4r	.	(8b-XL	.
16%3C	.	16%3cJ	.	16%3cJ	.	16%3ggJ	.	16%3r	.	16%3r	.	.	.	.	.	.	.	.	.	.	.
.	.	.	.	.	.	.	.	.	.	.	.	.	.	.	8GGJ	8GJ 8g	.	.	.	8gJ	.
=37	=37	=37	=37	=37	=37	=37	=37	=37	=37	=37	=37	=37	=37	=37	=37	=37	=37	=37	=37	=37	=37
16%3F	.	16%3fL	.	16%3fL	.	16%3ff	.	16%3bb-XL	.	16%3ee-XL	.	2.r	2.r	4r	2C)	2c) 2cc	.	2c	.	2cc)	.
16%3r	.	16%3f	.	16%3f	.	16%3r	.	16%3ddd	.	16%3gg	.	.	.	.	.	.	.	.	.	.	.
.	.	.	.	.	.	.	.	.	.	.	.	.	.	8FFL	.	.	.	.	.	.	.
16%3C	.	16%3e-X	.	16%3e-X	.	16%3ee-XL	.	16%3ccc	.	16%3ff	.	.	.	8FFJ	.	.	.	.	.	.	.
.	.	.	.	.	.	.	.	.	.	.	.	.	.	4FF	(8DL	(8dL 8dd	.	(8dL	.	(8ddL	.
16%3r	.	16%3B-XJ	.	16%3B-XJ	.	16%3bb-XJ	.	16%3ggJ	.	16%3ffJ	.	.	.	.	.	.	.	.	.	.	.
.	.	.	.	.	.	.	.	.	.	.	.	.	.	.	8FJ	8fJ 8ff	.	8fJ	.	8ffJ	.
=38	=38	=38	=38	=38	=38	=38	=38	=38	=38	=38	=38	=38	=38	=38	=38	=38	=38	=38	=38	=38	=38
!!pagebreak:original
16%3FF	.	16%3fL	.	16%3fL	.	16%3r	.	16%3fff	.	16%3ggL	.	2.r	2.r	4r	8GL)	8gL) 8gg	.	8gL)	.	8ggL)	.
.	.	.	.	.	.	.	.	.	.	.	.	.	.	.	8FJ	8fJ 8ff	.	8fJ	.	8ffJ	.
16%3r	.	16%3f	.	16%3f	.	16%3ccL	.	16%3r	.	16%3bb-X	.	.	.	.	.	.	.	.	.	.	.
.	.	.	.	.	.	.	.	.	.	.	.	.	.	8FFL	4D	4d 4dd	.	4d	.	4dd	.
16%3r	.	16%3g	.	16%3g	.	16%3dd	.	16%3ccc	.	16%3ffJ	.	.	.	8FFJ	.	.	.	.	.	.	.
.	.	.	.	.	.	.	.	.	.	.	.	.	.	4FF	12CL	12cL 12cc	.	4r	.	12ccL	.
16%3C	.	16%3cJ	.	16%3cJ	.	16%3ggJ	.	16%3r	.	16%3r	.	.	.	.	.	.	.	.	.	.	.
.	.	.	.	.	.	.	.	.	.	.	.	.	.	.	12BB-X	12B- 12b-	.	.	.	12b-X	.
.	.	.	.	.	.	.	.	.	.	.	.	.	.	.	12GGJ	12GJ 12g	.	.	.	12gJ	.
=39	=39	=39	=39	=39	=39	=39	=39	=39	=39	=39	=39	=39	=39	=39	=39	=39	=39	=39	=39	=39	=39
16%3FF	.	16%3fL	.	16%3fL	.	16%3ff	.	16%3bb-XL	.	16%3eee-XL	.	2.r	2.r	4r	2C	2c 2cc	.	2c	.	2cc	.
16%3r	.	16%3f	.	16%3f	.	16%3r	.	16%3ddd	.	16%3ggg	.	.	.	.	.	.	.	.	.	.	.
.	.	.	.	.	.	.	.	.	.	.	.	.	.	8FFL	.	.	.	.	.	.	.
8%3r	.	16%3e-XJ	.	16%3e-XJ	.	16%3ee-X	.	16%3cccJ	.	16%3fffJ	.	.	.	8FFJ	.	.	.	.	.	.	.
.	.	.	.	.	.	.	.	.	.	.	.	.	.	4FF	4r	4c#X 4cc#X	.	4c#X	.	4cc#X	.
.	.	16%3r	.	16%3r	.	16%3r	.	16%3r	.	16%3r	.	.	.	.	.	.	.	.	.	.	.
=40	=40	=40	=40	=40	=40	=40	=40	=40	=40	=40	=40	=40	=40	=40	=40	=40	=40	=40	=40	=40	=40
*M2/4	*	*M2/4	*	*M2/4	*	*M2/4	*	*M2/4	*	*M2/4	*	*M2/4	*M2/4	*M2/4	*M2/4	*M2/4	*	*M2/4	*	*M2/4	*
!	!	!LO:TX:t=arco	!	!	!	!LO:TX:t=arco	!	!	!	!LO:TX:t=arco	!	!	!	!	!	!	!	!	!	!	!
6r	.	2B	mf	6r	.	2b	mf	6r	.	2b	mf	6BBB 6FF#X 6BB	6r	2r	2r	4r	.	8f#XL	mf	8bL 8ff#X	mf
.	.	.	.	.	.	.	.	.	.	.	.	.	.	.	.	.	.	8f#J	.	8bJ 8ff#	.
!	!	!	!	!LO:TX:t=pizz	!	!	!	!LO:TX:t=pizz	!	!	!	!	!	!	!	!	!	!	!	!	!
6BB 6F#X 6B	mf	.	.	6B 6d	mf	.	.	6B 6d	mf	.	.	6r	6r	.	.	.	.	.	.	.	.
.	.	.	.	.	.	.	.	.	.	.	.	.	.	.	.	4f#Xt	p	8f#L	.	8bL 8ff#	.
6r	.	.	.	6d 6b	.	.	.	6d 6b	.	.	.	6BBB 6FF# 6BB	6B 6d	.	.	.	.	.	.	.	.
.	.	.	.	.	.	.	.	.	.	.	.	.	.	.	.	.	.	8eJ	.	8eeJ 8aa	.
=41	=41	=41	=41	=41	=41	=41	=41	=41	=41	=41	=41	=41	=41	=41	=41	=41	=41	=41	=41	=41	=41
6r	.	(6A	.	6r	.	(6a	.	6r	.	(6a	.	6EE 6BB 6E 6B	6e 6g 6b	2r	2r	4r	.	8f#XL	.	8bL 8ff#X	.
.	.	.	.	.	.	.	.	.	.	.	.	.	.	.	.	.	.	8f#J	.	8bJ 8ff#	.
6EE 6BB 6E	.	6G	.	6G 6e	.	6g	.	6G 6e	.	6g	.	6r	6r	.	.	.	.	.	.	.	.
.	.	.	.	.	.	.	.	.	.	.	.	.	.	.	.	4et	.	8gL	.	8aL 8dd	.
6r	.	6A)	.	6G 6e 6b	.	6a)	.	6G 6e 6b	.	6a)	.	6EE 6BB 6E 6B	6e 6g 6b	.	.	.	.	.	.	.	.
.	.	.	.	.	.	.	.	.	.	.	.	.	.	.	.	.	.	8gJ	.	8aJ 8ee	.
=42	=42	=42	=42	=42	=42	=42	=42	=42	=42	=42	=42	=42	=42	=42	=42	=42	=42	=42	=42	=42	=42
6r	.	2B	.	6r	.	2b	.	6r	.	2b	.	6BBB 6FF#X 6BB 6F#X 6B	6d 6f#X	2r	2r	4r	.	8f#XL	.	8bL 8ff#X	.
.	.	.	.	.	.	.	.	.	.	.	.	.	.	.	.	.	.	8f#J	.	8bJ 8ff#	.
6BB 6F#X 6B	.	.	.	6B 6d	.	.	.	6B 6d	.	.	.	6r	6r	.	.	.	.	.	.	.	.
.	.	.	.	.	.	.	.	.	.	.	.	.	.	.	.	4f#Xt	.	8f#L	.	8bL 8ff#	.
6r	.	.	.	6d 6b	.	.	.	6d 6b	.	.	.	6BBB 6FF# 6BB 6F# 6B	6d 6f#	.	.	.	.	.	.	.	.
.	.	.	.	.	.	.	.	.	.	.	.	.	.	.	.	.	.	8eJ	.	8eeJ 8aa	.
=43	=43	=43	=43	=43	=43	=43	=43	=43	=43	=43	=43	=43	=43	=43	=43	=43	=43	=43	=43	=43	=43
6r	.	(6A	.	6r	.	(6a	.	6r	.	(6a	.	6EE 6BB 6E 6B	6e 6g 6b	2r	2r	4r	.	8f#XL	.	8bL 8ff#X	.
.	.	.	.	.	.	.	.	.	.	.	.	.	.	.	.	.	.	8f#J	.	8bJ 8ff#	.
6EE 6BB 6E	.	6G	.	6G 6e	.	6g	.	6G 6e	.	6g	.	6r	6r	.	.	.	.	.	.	.	.
.	.	.	.	.	.	.	.	.	.	.	.	.	.	.	.	4et	.	8aL	.	8aL 8dd	.
6r	.	6A)	.	6G 6e 6b	.	6a)	.	6G 6e 6b	.	6a)	.	6EE 6BB 6E 6B	6e 6g 6b	.	.	.	.	.	.	.	.
.	.	.	.	.	.	.	.	.	.	.	.	.	.	.	.	.	.	8gJ	.	8aJ 8ee	.
=44	=44	=44	=44	=44	=44	=44	=44	=44	=44	=44	=44	=44	=44	=44	=44	=44	=44	=44	=44	=44	=44
6r	.	6B	.	6r	.	6b	.	6r	.	6b	.	6BBB 6FF#X 6BB 6F#X 6B	6d 6f#X	2r	2r	4r	.	8f#XL	.	8bL 8ff#X	.
.	.	.	.	.	.	.	.	.	.	.	.	.	.	.	.	.	.	8f#J	.	8bJ 8ff#	.
6BB 6F#X 6B	.	6.d	.	6B 6d	.	6.dd	.	6B 6d	.	6.dd	.	6BB 6F# 6B	6d 6f# 6b	.	.	.	.	.	.	.	.
.	.	.	.	.	.	.	.	.	.	.	.	.	.	.	.	4bt	.	8aL	.	8eeL 8aa	.
6r	.	.	.	6d 6b	.	.	.	6d 6b	.	.	.	6r	6r	.	.	.	.	.	.	.	.
.	.	.	.	.	.	.	.	.	.	.	.	.	.	.	.	.	.	8f#J	.	8ff#XJ 8bb	.
.	.	12B	.	.	.	12b	.	.	.	12b	.	.	.	.	.	.	.	.	.	.	.
=45	=45	=45	=45	=45	=45	=45	=45	=45	=45	=45	=45	=45	=45	=45	=45	=45	=45	=45	=45	=45	=45
6r	.	3A	.	6r	.	3a	.	6r	.	3a	.	6EE 6BB 6E 6G 6B	6e 6g	2r	2r	4r	.	8f#XL	.	8bL 8ff#X	.
.	.	.	.	.	.	.	.	.	.	.	.	.	.	.	.	.	.	8f#J	.	8bJ 8ff#	.
6EE 6BB 6E	.	.	.	6G 6e	.	.	.	6G 6e	.	.	.	6E 6G 6B	6e 6g 6b 6ee	.	.	.	.	.	.	.	.
.	.	.	.	.	.	.	.	.	.	.	.	.	.	.	.	4gT	.	8gL	.	8aL 8ee	.
6r	.	6B	.	6G 6e 6b	.	6b	.	6G 6e 6b	.	6b	.	6r	6r	.	.	.	.	.	.	.	.
.	.	.	.	.	.	.	.	.	.	.	.	.	.	.	.	.	.	8eJ	.	8ggJ 8ddd	.
==	==	==	==	==	==	==	==	==	==	==	==	==	==	==	==	==	==	==	==	==	==
*-	*-	*-	*-	*-	*-	*-	*-	*-	*-	*-	*-	*-	*-	*-	*-	*-	*-	*-	*-	*-	*-
!!!CDT: 1890/12/08-1959/08/28
!!!CBL: Polička, Bohemia
!!!CDL: Liestal, Switzerland
!!!CNT: Czech
!!!AGN: Orchestral; Programmatic
!!!MCN: Maixner, V.
!!!MDT: 1924/09/11
!!!MGN: unknown
!!!MLC: Prague, Czechia
!!!MPD: 1924
!!!MPN:
!!!ODT: 1921
!!!PDT: 1967
!!!excerpt-start-measure: 32
!!!excerpt-end-measure: 45
!!!excerpt-start-time:
!!!excerpt-end-time:
!!!EEV: 2020/01/17
!!!system-decoration: [(s1,s2,s3,s4)][(s5)]{(s6,s7)}[(s8,s9,s10,s11,s12,s13)]
!!!ONB: Converted from MusicXML on 2020/01/17
